X:1
T:Sommerlied
T:Josef Gersbach
T:Paul Gerhardt
T:Sommerlied
T:Geh aus, mein Herz, und suche Freud'
T:CPDL - Creative Commons Attribution Non Commercial 3.0
C:Josef Gersbach
Z:Paul Gerhardt
Z:CPDL - Creative Commons Attribution Non Commercial 3.0
%%score [ ( 1 2 ) ( 3 4 ) ]
L:1/8
Q:1/4=90
M:4/4
K:C
V:1 treble nm="S\nA" snm="S\nA"
V:2 treble 
V:3 bass nm="T\nB" snm="T\nB"
V:4 bass 
V:1
"^Mäßig" G2 | c3 G G3 G | ED EF G3 G | AB Bc | cB AG | G3 F E2 E2 | D2 G2 B2 A2 | A4 G2 | G2 | %9
w: 1.~Geh|aus, mein Herz, und|su- * che _ Freud in|die- * ser _|lie- * ben _|Som- mer- zeit an|dei- nes Got- tes|Ga- ben;|schau|
w: 2.~Die|Bäu- me ste- hen|vol- * ler _ Laub, das|Erd- * reich _|de- * cket _|sei- nen Staub mit|ei- nem grü nen|Klei- de;|Nar-|
w: 3.~Die|Ler- che schwingt sich|in _ die _ Luft, das|Täub- * chen _|fliegt _ aus _|sei- ner Kluft und|macht sich in die|Wäl- der;|die|
 f3 e dc BA | (G2 A)B c2 c2 | B3 c dc de | f2 e2 d2 B2 | c3 c (c2 A)F | (E4 D4) | C2 z2 z2 |] %16
w: an der schö- * nen _|Gär- * ten Zier und|sie- he, wie _ sie _|mir und dir sich|aus- ge- schmü- * cket|ha- *|ben.|
w: zis- sus und _ die _|Tu- * li- pan, die|zie- hen sich _ viel _|schö- ner an als|Sa- lo- mo- * nis|Sei- *|de.|
w: hoch- be- gab- * te _|Nach- * ti- gall er-|götzt und füllt _ mit _|ih- rem Schall Berg,|Hü- gel, Tal * und|Fel- *|der.|
V:2
 G2 | E3 E E3 E | CB, CD E3 E | FD DE | EG FE | E3 D C2 C2 | B,2 D2 G2 ^F2 | ^F4 G2 | G2 | %9
 B3 c dc BA | G3 G G2 G2 | G3 A Bc Bc | d2 c2 B2 G2 | G3 G (A2 F)D | (C4 B,4) | C2 x2 x2 |] %16
V:3
 z2 | z8 | z8 | z4 | z4 | z8 | z8 | z6 | G,2 | D3 E FE DC | (B,2 C)D C2 E2 | D3 C B,A, G,2 | %12
 G2 G2 G2 D2 | C3 C C3 A, | G,8 | C,2 z2 z2 |] %16
V:4
 x2 | x8 | x8 | x4 | x4 | x8 | x8 | x6 | G,2 | G,3 G, G,2 G,2 | G,3 F, E,2 C,2 | %11
 G,,2 G,2 G,A, G,2 | B,2 C2 G,2 G,F, | E,3 E, F,3 F, | G,8 | C,2 x2 x2 |] %16

